X: 18555
T: I Have Two Yellow Goats
R: polka
M: 2/4
K: Gmajor
|:DE GA|B2 AG|BA AG/A/|BA AB|
DE GA|B2 AG|BG G>A|1 BG G>E:|2 BG GB/d/||
|:ed e/f/g|d2 cB|BA AG/A/|BA AB/d/|
ed e/f/g|d2 cB|AG GA|1 BG GB/d/:|2 BG G>E||

